src/assets/icon-safe.svg

<?xml version="1.0" encoding="UTF-8"?>
<svg width="71px" height="61px" viewBox="0 0 71 61" version="1.1" xmlns="http://www.w3.org/2000/svg" xmlns:xlink="http://www.w3.org/1999/xlink">
    <!-- Generator: sketchtool 62 (101010) - https://sketch.com -->
    <title>D13EB364-EDAB-4F8B-A9BA-8225AEFBCB4D</title>
    <desc>Created with sketchtool.</desc>
    <g id="Symbols" stroke="none" stroke-width="1" fill="none" fill-rule="evenodd">
        <g id="icon_safe">
            <g id="Group-30">
                <polyline id="Fill-1" fill="#1C9781" points="65.1053 53.8561 65.1053 59.8151 53.6993 59.8151 53.6993 53.8561"></polyline>
                <polyline id="Stroke-2" stroke="#001428" stroke-width="3" stroke-linecap="round" stroke-linejoin="round" points="65.1053 53.8561 65.1053 59.8151 53.6993 59.8151 53.6993 53.8561"></polyline>
                <polyline id="Fill-4" fill="#1C9781" points="17.3016 53.8561 17.3016 59.8151 5.8956 59.8151 5.8956 53.8561"></polyline>
                <g id="Group-29" transform="translate(0.000000, 0.315300)">
                    <polyline id="Stroke-5" stroke="#001428" stroke-width="3" stroke-linecap="round" stroke-linejoin="round" points="17.3016 53.5408 17.3016 59.4998 5.8956 59.4998 5.8956 53.5408"></polyline>
                    <path d="M67.6971,53.2234 L3.3021,53.2234 C1.7551,53.2234 0.5001,51.9684 0.5001,50.4204 L0.5001,2.9884 C0.5001,1.4394 1.7551,0.1844 3.3021,0.1844 L67.6971,0.1844 C69.2451,0.1844 70.5001,1.4394 70.5001,2.9884 L70.5001,50.4204 C70.5001,51.9684 69.2451,53.2234 67.6971,53.2234" id="Fill-7" fill="#1C9781"></path>
                    <path d="M67.6971,53.2234 L3.3021,53.2234 C1.7551,53.2234 0.5001,51.9684 0.5001,50.4204 L0.5001,2.9884 C0.5001,1.4394 1.7551,0.1844 3.3021,0.1844 L67.6971,0.1844 C69.2451,0.1844 70.5001,1.4394 70.5001,2.9884 L70.5001,50.4204 C70.5001,51.9684 69.2451,53.2234 67.6971,53.2234 Z" id="Stroke-9" stroke="#001428" stroke-width="3" stroke-linecap="round" stroke-linejoin="round"></path>
                    <g id="Group-14" transform="translate(30.000000, 12.000000)">
                        <path d="M26.9481,15.9792 L28.1601,15.9792 C27.9061,18.5472 26.8831,20.8832 25.3381,22.7752 L24.4811,21.9182 C23.9841,21.4212 23.1781,21.4212 22.6781,21.9182 C22.1821,22.4162 22.1821,23.2212 22.6781,23.7212 L23.5351,24.5782 C21.6451,26.1222 19.2931,27.1462 16.7391,27.4012 L16.7421,26.2002 C16.7421,25.4972 16.1681,24.9212 15.4641,24.9212 C14.7601,24.9212 14.1851,25.4972 14.1851,26.2002 L14.1851,27.4132 C11.6171,27.1582 9.2811,26.1342 7.3891,24.5892 L8.2461,23.7332 C8.7431,23.2362 8.7431,22.4302 8.2461,21.9312 C7.7491,21.4342 6.9441,21.4342 6.4431,21.9312 L5.5881,22.7882 C4.0431,20.8982 3.0181,18.5442 2.7641,15.9912 L3.9561,15.9942 C4.6591,15.9942 5.2341,15.4192 5.2341,14.7152 C5.2341,14.0122 4.6591,13.4372 3.9561,13.4372 L2.7431,13.4372 C2.9981,10.8692 4.0221,8.5342 5.5661,6.6412 L6.4231,7.4982 C6.6771,7.7512 6.9971,7.8692 7.3301,7.8692 C7.6621,7.8692 7.9821,7.7402 8.2361,7.4982 C8.7341,7.0002 8.7341,6.1952 8.2361,5.6952 L7.3811,4.8382 C9.2691,3.2942 11.6231,2.2702 14.1771,2.0152 L14.1741,3.2082 C14.1741,3.9122 14.7481,4.4862 15.4521,4.4862 C16.1551,4.4862 16.7301,3.9122 16.7301,3.2082 L16.7301,1.9952 C19.2991,2.2502 21.6351,3.2732 23.5261,4.8182 L22.6701,5.6742 C22.1731,6.1712 22.1731,6.9772 22.6701,7.4762 C22.9251,7.7312 23.2451,7.8472 23.5771,7.8472 C23.9101,7.8472 24.2301,7.7192 24.4841,7.4762 L25.3411,6.6212 C26.8861,8.5102 27.9101,10.8632 28.1641,13.4162 L26.9481,13.4142 C26.2441,13.4142 25.6711,13.9882 25.6711,14.6922 C25.6711,15.3922 26.2441,15.9792 26.9481,15.9792 M25.7591,4.4062 C25.7481,4.3942 25.7331,4.3942 25.7221,4.3792 C23.0751,1.7592 19.4591,0.1342 15.4521,0.1342 C11.4451,0.1342 7.8281,1.7622 5.1931,4.3722 C5.1811,4.3822 5.1681,4.3822 5.1561,4.3972 C5.1441,4.4082 5.1441,4.4222 5.1311,4.4332 C2.5071,7.0782 0.8831,10.6982 0.8831,14.7052 C0.8831,18.7102 2.5101,22.3282 5.1191,24.9622 C5.1311,24.9742 5.1311,24.9882 5.1441,25.0002 C5.1561,25.0112 5.1701,25.0112 5.1811,25.0252 C7.8261,27.6462 11.4451,29.2732 15.4521,29.2732 C19.4591,29.2732 23.0751,27.6462 25.7101,25.0372 C25.7221,25.0252 25.7361,25.0252 25.7481,25.0112 C25.7591,25.0002 25.7591,24.9862 25.7731,24.9742 C28.3931,22.3282 30.0221,18.7102 30.0221,14.7052 C30.0221,10.6972 28.3931,7.0782 25.7841,4.4432 C25.7731,4.4312 25.7731,4.4162 25.7591,4.4062" id="Fill-11" fill="#001428"></path>
                        <path d="M26.9481,15.9792 L28.1601,15.9792 C27.9061,18.5472 26.8831,20.8832 25.3381,22.7752 L24.4811,21.9182 C23.9841,21.4212 23.1781,21.4212 22.6781,21.9182 C22.1821,22.4162 22.1821,23.2212 22.6781,23.7212 L23.5351,24.5782 C21.6451,26.1222 19.2931,27.1462 16.7391,27.4012 L16.7421,26.2002 C16.7421,25.4972 16.1681,24.9212 15.4641,24.9212 C14.7601,24.9212 14.1851,25.4972 14.1851,26.2002 L14.1851,27.4132 C11.6171,27.1582 9.2811,26.1342 7.3891,24.5892 L8.2461,23.7332 C8.7431,23.2362 8.7431,22.4302 8.2461,21.9312 C7.7491,21.4342 6.9441,21.4342 6.4431,21.9312 L5.5881,22.7882 C4.0431,20.8982 3.0181,18.5442 2.7641,15.9912 L3.9561,15.9942 C4.6591,15.9942 5.2341,15.4192 5.2341,14.7152 C5.2341,14.0122 4.6591,13.4372 3.9561,13.4372 L2.7431,13.4372 C2.9981,10.8692 4.0221,8.5342 5.5661,6.6412 L6.4231,7.4982 C6.6771,7.7512 6.9971,7.8692 7.3301,7.8692 C7.6621,7.8692 7.9821,7.7402 8.2361,7.4982 C8.7341,7.0002 8.7341,6.1952 8.2361,5.6952 L7.3811,4.8382 C9.2691,3.2942 11.6231,2.2702 14.1771,2.0152 L14.1741,3.2082 C14.1741,3.9122 14.7481,4.4862 15.4521,4.4862 C16.1551,4.4862 16.7301,3.9122 16.7301,3.2082 L16.7301,1.9952 C19.2991,2.2502 21.6351,3.2732 23.5261,4.8182 L22.6701,5.6742 C22.1731,6.1712 22.1731,6.9772 22.6701,7.4762 C22.9251,7.7312 23.2451,7.8472 23.5771,7.8472 C23.9101,7.8472 24.2301,7.7192 24.4841,7.4762 L25.3411,6.6212 C26.8861,8.5102 27.9101,10.8632 28.1641,13.4162 L26.9481,13.4142 C26.2441,13.4142 25.6711,13.9882 25.6711,14.6922 C25.6711,15.3922 26.2441,15.9792 26.9481,15.9792 M25.7591,4.4062 C25.7481,4.3942 25.7331,4.3942 25.7221,4.3792 C23.0751,1.7592 19.4591,0.1342 15.4521,0.1342 C11.4451,0.1342 7.8281,1.7622 5.1931,4.3722 C5.1811,4.3822 5.1681,4.3822 5.1561,4.3972 C5.1441,4.4082 5.1441,4.4222 5.1311,4.4332 C2.5071,7.0782 0.8831,10.6982 0.8831,14.7052 C0.8831,18.7102 2.5101,22.3282 5.1191,24.9622 C5.1311,24.9742 5.1311,24.9882 5.1441,25.0002 C5.1561,25.0112 5.1701,25.0112 5.1811,25.0252 C7.8261,27.6462 11.4451,29.2732 15.4521,29.2732 C19.4591,29.2732 23.0751,27.6462 25.7101,25.0372 C25.7221,25.0252 25.7361,25.0252 25.7481,25.0112 C25.7591,25.0002 25.7591,24.9862 25.7731,24.9742 C28.3931,22.3282 30.0221,18.7102 30.0221,14.7052 C30.0221,10.6972 28.3931,7.0782 25.7841,4.4432 C25.7731,4.4312 25.7731,4.4162 25.7591,4.4062" id="Stroke-13" stroke="#001428"></path>
                    </g>
                    <path d="M59.1131,26.7039 C59.1131,34.2489 52.9971,40.3649 45.4521,40.3649 C37.9071,40.3649 31.7911,34.2489 31.7911,26.7039 C31.7911,19.1589 37.9071,13.0429 45.4521,13.0429 C52.9971,13.0429 59.1131,19.1589 59.1131,26.7039 Z" id="Stroke-15" stroke="#001428" stroke-width="3" stroke-linecap="round" stroke-linejoin="round"></path>
                    <path d="M49.1873,26.7039 C49.1873,28.7669 47.5143,30.4389 45.4523,30.4389 C43.3893,30.4389 41.7173,28.7669 41.7173,26.7039 C41.7173,24.6409 43.3893,22.9699 45.4523,22.9699 C47.5143,22.9699 49.1873,24.6409 49.1873,26.7039" id="Fill-17" fill="#1C9781"></path>
                    <path d="M49.1873,26.7039 C49.1873,28.7669 47.5143,30.4389 45.4523,30.4389 C43.3893,30.4389 41.7173,28.7669 41.7173,26.7039 C41.7173,24.6409 43.3893,22.9699 45.4523,22.9699 C47.5143,22.9699 49.1873,24.6409 49.1873,26.7039 Z" id="Stroke-19" stroke="#001428" stroke-width="3" stroke-linecap="round" stroke-linejoin="round"></path>
                    <g id="Group-24" transform="translate(9.000000, 11.000000)">
                        <line x1="1.0945" y1="0.3923" x2="1.0945" y2="31.0163" id="Fill-21" fill="#1C9781"></line>
                        <line x1="1.0945" y1="0.3923" x2="1.0945" y2="31.0163" id="Stroke-23" stroke="#001428" stroke-width="3" stroke-linecap="round" stroke-linejoin="round"></line>
                    </g>
                    <g id="Group-28" transform="translate(16.000000, 11.000000)">
                        <line x1="0.8817" y1="0.3923" x2="0.8817" y2="31.0163" id="Fill-25" fill="#1C9781"></line>
                        <line x1="0.8817" y1="0.3923" x2="0.8817" y2="31.0163" id="Stroke-27" stroke="#001428" stroke-width="3" stroke-linecap="round" stroke-linejoin="round"></line>
                    </g>
                </g>
            </g>
        </g>
    </g>
</svg>

<svg xmlns="http://www.w3.org/2000/svg" width="76" height="76" viewBox="0 0 76 76">
    <g fill="none" fill-rule="evenodd">
        <path fill="#1C9781" d="M65.105 53.856L65.105 59.815 53.699 59.815 53.699 53.856" transform="translate(3 7)"/>
        <path stroke="#001428" stroke-linecap="round" stroke-linejoin="round" stroke-width="3" d="M65.105 53.856L65.105 59.815 53.699 59.815 53.699 53.856" transform="translate(3 7)"/>
        <path fill="#1C9781" d="M17.302 53.856L17.302 59.815 5.896 59.815 5.896 53.856" transform="translate(3 7)"/>
        <g>
            <path stroke="#001428" stroke-linecap="round" stroke-linejoin="round" stroke-width="3" d="M17.302 53.541L17.302 59.5 5.896 59.5 5.896 53.541" transform="translate(3 7) translate(0 .315)"/>
            <path fill="#1C9781" d="M67.697 53.223H3.302C1.755 53.223.5 51.968.5 50.42V2.988C.5 1.44 1.755.184 3.302.184h64.395c1.548 0 2.803 1.255 2.803 2.804V50.42c0 1.548-1.255 2.803-2.803 2.803" transform="translate(3 7) translate(0 .315)"/>
            <path stroke="#001428" stroke-linecap="round" stroke-linejoin="round" stroke-width="3" d="M67.697 53.223H3.302C1.755 53.223.5 51.968.5 50.42V2.988C.5 1.44 1.755.184 3.302.184h64.395c1.548 0 2.803 1.255 2.803 2.804V50.42c0 1.548-1.255 2.803-2.803 2.803z" transform="translate(3 7) translate(0 .315)"/>
            <g>
                <path fill="#001428" d="M26.948 15.98h1.212c-.254 2.567-1.277 4.903-2.822 6.795l-.857-.857c-.497-.497-1.303-.497-1.803 0-.496.498-.496 1.303 0 1.803l.857.857c-1.89 1.544-4.242 2.568-6.796 2.823l.003-1.2c0-.704-.574-1.28-1.278-1.28-.704 0-1.279.576-1.279 1.28v1.212c-2.568-.255-4.904-1.279-6.796-2.824l.857-.856c.497-.497.497-1.303 0-1.802-.497-.497-1.302-.497-1.803 0l-.855.857c-1.545-1.89-2.57-4.244-2.824-6.797l1.192.003c.703 0 1.278-.575 1.278-1.279 0-.703-.575-1.278-1.278-1.278H2.743c.255-2.568 1.28-4.903 2.823-6.796l.857.857c.254.253.574.371.907.371.332 0 .652-.129.906-.37.498-.499.498-1.304 0-1.804l-.855-.857c1.888-1.544 4.242-2.568 6.796-2.823l-.003 1.193c0 .704.574 1.278 1.278 1.278.703 0 1.278-.574 1.278-1.278V1.995c2.57.255 4.905 1.278 6.796 2.823l-.856.856c-.497.497-.497 1.303 0 1.802.255.255.575.371.907.371.333 0 .653-.128.907-.37l.857-.856c1.545 1.89 2.57 4.242 2.823 6.795l-1.216-.002c-.704 0-1.277.574-1.277 1.278 0 .7.573 1.287 1.277 1.287M25.76 4.406c-.01-.012-.026-.012-.037-.027C23.075 1.76 19.46.134 15.452.134S7.828 1.762 5.193 4.372c-.012.01-.025.01-.037.025-.012.011-.012.025-.025.036C2.507 7.078.883 10.698.883 14.705c0 4.005 1.627 7.623 4.236 10.257.012.012.012.026.025.038.012.011.026.011.037.025 2.645 2.621 6.264 4.248 10.271 4.248 4.007 0 7.623-1.627 10.258-4.236.012-.012.026-.012.038-.026.011-.01.011-.025.025-.037 2.62-2.646 4.25-6.264 4.25-10.269 0-4.008-1.63-7.627-4.239-10.262-.01-.012-.01-.027-.025-.037" transform="translate(3 7) translate(0 .315) translate(30 12)"/>
                <path stroke="#001428" d="M26.948 15.98h1.212c-.254 2.567-1.277 4.903-2.822 6.795l-.857-.857c-.497-.497-1.303-.497-1.803 0-.496.498-.496 1.303 0 1.803l.857.857c-1.89 1.544-4.242 2.568-6.796 2.823l.003-1.2c0-.704-.574-1.28-1.278-1.28-.704 0-1.279.576-1.279 1.28v1.212c-2.568-.255-4.904-1.279-6.796-2.824l.857-.856c.497-.497.497-1.303 0-1.802-.497-.497-1.302-.497-1.803 0l-.855.857c-1.545-1.89-2.57-4.244-2.824-6.797l1.192.003c.703 0 1.278-.575 1.278-1.279 0-.703-.575-1.278-1.278-1.278H2.743c.255-2.568 1.28-4.903 2.823-6.796l.857.857c.254.253.574.371.907.371.332 0 .652-.129.906-.37.498-.499.498-1.304 0-1.804l-.855-.857c1.888-1.544 4.242-2.568 6.796-2.823l-.003 1.193c0 .704.574 1.278 1.278 1.278.703 0 1.278-.574 1.278-1.278V1.995c2.57.255 4.905 1.278 6.796 2.823l-.856.856c-.497.497-.497 1.303 0 1.802.255.255.575.371.907.371.333 0 .653-.128.907-.37l.857-.856c1.545 1.89 2.57 4.242 2.823 6.795l-1.216-.002c-.704 0-1.277.574-1.277 1.278 0 .7.573 1.287 1.277 1.287M25.76 4.406c-.01-.012-.026-.012-.037-.027C23.075 1.76 19.46.134 15.452.134S7.828 1.762 5.193 4.372c-.012.01-.025.01-.037.025-.012.011-.012.025-.025.036C2.507 7.078.883 10.698.883 14.705c0 4.005 1.627 7.623 4.236 10.257.012.012.012.026.025.038.012.011.026.011.037.025 2.645 2.621 6.264 4.248 10.271 4.248 4.007 0 7.623-1.627 10.258-4.236.012-.012.026-.012.038-.026.011-.01.011-.025.025-.037 2.62-2.646 4.25-6.264 4.25-10.269 0-4.008-1.63-7.627-4.239-10.262-.01-.012-.01-.027-.025-.037" transform="translate(3 7) translate(0 .315) translate(30 12)"/>
            </g>
            <path stroke="#001428" stroke-linecap="round" stroke-linejoin="round" stroke-width="3" d="M59.113 26.704c0 7.545-6.116 13.66-13.66 13.66-7.546 0-13.662-6.115-13.662-13.66s6.116-13.661 13.661-13.661 13.661 6.116 13.661 13.66z" transform="translate(3 7) translate(0 .315)"/>
            <path fill="#1C9781" d="M49.187 26.704c0 2.063-1.673 3.735-3.735 3.735-2.063 0-3.735-1.672-3.735-3.735 0-2.063 1.672-3.734 3.735-3.734 2.062 0 3.735 1.67 3.735 3.734" transform="translate(3 7) translate(0 .315)"/>
            <path stroke="#001428" stroke-linecap="round" stroke-linejoin="round" stroke-width="3" d="M49.187 26.704c0 2.063-1.673 3.735-3.735 3.735-2.063 0-3.735-1.672-3.735-3.735 0-2.063 1.672-3.734 3.735-3.734 2.062 0 3.735 1.67 3.735 3.734z" transform="translate(3 7) translate(0 .315)"/>
            <g>
                <path fill="#1C9781" d="M1.095 0.392L1.095 31.016" transform="translate(3 7) translate(0 .315) translate(9 11)"/>
                <path stroke="#001428" stroke-linecap="round" stroke-linejoin="round" stroke-width="3" d="M1.095 0.392L1.095 31.016" transform="translate(3 7) translate(0 .315) translate(9 11)"/>
            </g>
            <g>
                <path fill="#1C9781" d="M0.882 0.392L0.882 31.016" transform="translate(3 7) translate(0 .315) translate(16 11)"/>
                <path stroke="#001428" stroke-linecap="round" stroke-linejoin="round" stroke-width="3" d="M0.882 0.392L0.882 31.016" transform="translate(3 7) translate(0 .315) translate(16 11)"/>
            </g>
        </g>
    </g>
</svg>
